build/images/logo_desktop.svg

<?xml version="1.0" encoding="UTF-8"?>
<svg width="107px" height="53px" viewBox="0 0 107 53" version="1.1" xmlns="http://www.w3.org/2000/svg" xmlns:xlink="http://www.w3.org/1999/xlink">
    <!-- Generator: Sketch 63.1 (92452) - https://sketch.com -->
    <title>Logo Digift</title>
    <desc>Created with Sketch.</desc>
    <g id="Page-1" stroke="none" stroke-width="1" fill="none" fill-rule="evenodd">
        <g id="1-1920" transform="translate(-121.000000, -60.000000)">
            <g id="1st-block">
                <g id="Logo-Digift" transform="translate(121.000000, 60.000000)">
                    <g id="Base">
                        <rect id="Blue" fill="#4740E3" x="37" y="10" width="70" height="43" rx="3.13043478"></rect>
                        <rect id="Green" fill="#00E0B4" x="0" y="0" width="70" height="43" rx="3.13043478"></rect>
                        <path d="M40.1304348,10 L70,10 L70,10 L70,39.8695652 C70,41.5984566 68.5984566,43 66.8695652,43 L37,43 L37,43 L37,13.1304348 C37,11.4015434 38.4015434,10 40.1304348,10 Z" id="Dark-green" fill="#00B8C0"></path>
                    </g>
                    <path d="M48.6750363,19 C49.2489523,19 49.7804687,19.0456517 50.2696016,19.1369565 C50.7587344,19.2282613 51.1956866,19.3423906 51.5804711,19.4793478 C51.9652557,19.616305 52.297861,19.756521 52.5782972,19.9 C52.8587334,20.043479 53.0706878,20.1673908 53.2141668,20.2717391 C53.6185166,20.5847842 53.6772117,20.9630413 53.3902537,21.4065217 L53.0380798,21.9543478 C52.8946008,22.1760881 52.731559,22.3032607 52.5489494,22.3358696 C52.3663398,22.3684784 52.1511245,22.3130442 51.9032972,22.1695652 C51.6032957,21.9869556 51.1989519,21.7978271 50.6902537,21.6021739 C50.1815555,21.4065208 49.5554748,21.3086957 48.8119929,21.3086957 C48.0554673,21.3086957 47.3837349,21.4358683 46.7967755,21.6902174 C46.209816,21.9445665 45.7174296,22.2902152 45.3196016,22.7271739 C44.9217735,23.1641326 44.6185157,23.676084 44.409819,24.2630435 C44.2011223,24.8500029 44.0967755,25.469562 44.0967755,26.1217391 C44.0967755,26.8521776 44.2174264,27.5206491 44.458732,28.1271739 C44.7000376,28.7336987 45.0293821,29.2521718 45.4467755,29.6826087 C45.8641689,30.1130456 46.3532944,30.4489118 46.9141668,30.6902174 C47.4750392,30.9315229 48.0815548,31.0521739 48.733732,31.0521739 C49.3206915,31.0521739 49.8326429,30.9739138 50.2696016,30.8173913 C50.7065603,30.6608688 51.0750348,30.4847836 51.3750363,30.2891304 C51.7141685,30.0673902 52.0076438,29.8130449 52.2554711,29.526087 L52.2554711,27.5891304 L52.2554711,27.5891304 L49.9303255,27.5891304 C49.3824966,27.5891304 49.1085863,27.3152201 49.1085863,26.7673913 L49.1085863,26.2391304 C49.1085863,25.6913016 49.3824966,25.4173913 49.9303255,25.4173913 L53.7032972,25.4173913 C54.2380825,25.4173913 54.5054711,25.6913016 54.5054711,26.2391304 L54.5054711,27.5891304 L54.5054711,27.5891304 C54.5054711,28.4528182 54.4335512,29.800303 54.3558573,30.1054199 C54.114779,31.0521739 53.1171726,31.8791387 52.5782972,32.1938731 C52.0394218,32.5086075 51.5244894,32.8038054 50.9042873,32.9739024 C50.2840852,33.1439994 48.9880832,33.3608696 48.3228624,33.3608696 C47.3967708,33.3608696 46.5228665,33.1880452 45.7011233,32.8423913 C44.8793801,32.4967374 44.1554743,32.0108727 43.5293842,31.3847826 C42.9032941,30.7586925 42.4076469,30.0087 42.0424277,29.1347826 C41.6772084,28.2608652 41.4946016,27.2956575 41.4946016,26.2391304 C41.4946016,25.2086905 41.6739476,24.2500044 42.032645,23.3630435 C42.3913425,22.4760825 42.8902505,21.7097858 43.5293842,21.0641304 C44.1685178,20.418475 44.925032,19.9130453 45.7989494,19.5478261 C46.6728668,19.1826069 47.6315529,19 48.6750363,19 Z M31.342953,19.2347826 C31.8777382,19.2347826 32.1451269,19.5086929 32.1451269,20.0565217 L32.1451269,32.3043478 C32.1451269,32.8521767 31.8777382,33.126087 31.342953,33.126087 L30.442953,33.126087 C29.9081677,33.126087 29.640779,32.8521767 29.640779,32.3043478 L29.640779,20.0565217 C29.640779,19.5086929 29.9081677,19.2347826 30.442953,19.2347826 L31.342953,19.2347826 Z M64.1679893,19.2347826 C64.7027746,19.2347826 64.9701632,19.5086929 64.9701632,20.0565217 L64.9701632,32.3043478 C64.9701632,32.8521767 64.7027746,33.126087 64.1679893,33.126087 L63.2679893,33.126087 C62.733204,33.126087 62.4658154,32.8521767 62.4658154,32.3043478 L62.4658154,20.0565217 C62.4658154,19.5086929 62.733204,19.2347826 63.2679893,19.2347826 L64.1679893,19.2347826 Z M82.3022466,19.2347826 C82.8500754,19.2347826 83.1239857,19.5086929 83.1239857,20.0565217 L83.1239857,20.6043478 C83.1239857,21.1391331 82.8500754,21.4065217 82.3022466,21.4065217 L77.6457249,21.4065217 L77.6457249,25.3391304 L81.441377,25.3391304 C81.9892059,25.3391304 82.2631162,25.6065191 82.2631162,26.1413043 L82.2631162,26.6891304 C82.2631162,27.2369593 81.9892059,27.5108696 81.441377,27.5108696 L77.6457249,27.5108696 L77.6457249,32.3043478 C77.6457249,32.8521767 77.3783362,33.126087 76.843551,33.126087 L75.943551,33.126087 C75.4087657,33.126087 75.141377,32.8521767 75.141377,32.3043478 L75.141377,20.0565217 C75.141377,19.5086929 75.4087657,19.2347826 75.943551,19.2347826 L82.3022466,19.2347826 Z M99.8691126,19.2347826 C100.403898,19.2347826 100.671287,19.5086929 100.671287,20.0565217 L100.671287,20.6043478 C100.671287,21.1391331 100.403898,21.4065217 99.8691126,21.4065217 L96.1321561,21.4065217 L96.1321561,32.3043478 C96.1321561,32.8521767 95.8582458,33.126087 95.310417,33.126087 L94.4299822,33.126087 C93.8951969,33.126087 93.6278083,32.8521767 93.6278083,32.3043478 L93.6278083,21.4065217 L89.8908517,21.4065217 C89.3430229,21.4065217 89.0691126,21.1391331 89.0691126,20.6043478 L89.0691126,20.0565217 C89.0691126,19.5086929 89.3430229,19.2347826 89.8908517,19.2347826 L99.8691126,19.2347826 Z M14.7347826,19.2347826 C15.8043532,19.2347826 16.7760826,19.3913028 17.65,19.7043478 C18.5239174,20.0173929 19.2673882,20.4673884 19.8804348,21.0543478 C20.4934813,21.6413073 20.9695635,22.3652131 21.3086957,23.226087 C21.6478278,24.0869608 21.8173913,25.0652119 21.8173913,26.1608696 C21.8173913,27.2565272 21.6478278,28.2347826 21.3086957,29.0956522 C20.9695635,29.956526 20.4934813,30.6869535 19.8804348,31.2869565 C19.2673882,31.8869595 18.5239174,32.3434767 17.65,32.6565217 C16.7760826,32.9695668 15.8043532,33.126087 14.7347826,33.126087 L10.8021739,33.126087 C10.2673886,33.126087 10,32.8521767 10,32.3043478 L10,20.0565217 C10,19.5086929 10.2673886,19.2347826 10.8021739,19.2347826 L14.7347826,19.2347826 Z M14.5978261,21.4065217 L12.5043478,21.4065217 L12.5043478,30.9543478 L14.5978261,30.9543478 C16.0065288,30.9543478 17.1282567,30.5467432 17.9630435,29.7315217 C18.7978303,28.9163003 19.2152174,27.7260948 19.2152174,26.1608696 C19.2152174,25.3913005 19.1043489,24.7097856 18.8826087,24.1163043 C18.6608685,23.5228231 18.3478281,23.0271759 17.9434783,22.6293478 C17.5391284,22.2315198 17.0532637,21.9282619 16.4858696,21.7195652 C15.9184754,21.5108685 15.2891339,21.4065217 14.5978261,21.4065217 Z" id="Text" fill="#FFFFFF"></path>
                </g>
            </g>
        </g>
    </g>
</svg>

<svg width="107" height="53" xmlns="http://www.w3.org/2000/svg"><g fill="none" fill-rule="evenodd"><rect fill="#4740E3" x="37" y="10" width="70" height="43" rx="3.13"/><rect fill="#00E0B4" width="70" height="43" rx="3.13"/><path d="M40.13 10H70v29.87A3.13 3.13 0 0166.87 43H37V13.13A3.13 3.13 0 0140.13 10z" fill="#00B8C0"/><path d="M48.675 19a8.7 8.7 0 012.905.48c.385.136.718.277.998.42.28.143.493.267.636.372.405.313.463.691.176 1.135l-.352.547c-.143.222-.306.35-.49.382-.182.032-.397-.023-.645-.166a7.726 7.726 0 00-1.213-.568c-.508-.195-1.135-.293-1.878-.293-.757 0-1.428.127-2.015.381-.587.255-1.08.6-1.477 1.037a4.485 4.485 0 00-.91 1.536 5.507 5.507 0 00-.313 1.859c0 .73.12 1.399.362 2.005a4.7 4.7 0 00.988 1.556c.417.43.906.766 1.467 1.007a4.546 4.546 0 001.82.362c.587 0 1.099-.078 1.536-.235a5.298 5.298 0 001.105-.528c.34-.222.633-.476.88-.763V27.59H49.93c-.548 0-.821-.274-.821-.822v-.528c0-.548.273-.822.821-.822h3.773c.535 0 .802.274.802.822v1.35c0 .864-.071 2.211-.15 2.516-.24.947-1.238 1.774-1.777 2.089-.539.315-1.054.61-1.674.78-.62.17-1.916.387-2.581.387a6.734 6.734 0 01-4.793-1.976 6.908 6.908 0 01-1.488-2.25c-.365-.874-.547-1.84-.547-2.896 0-1.03.179-1.989.538-2.876a6.908 6.908 0 011.496-2.299 6.897 6.897 0 012.27-1.516c.874-.365 1.833-.548 2.876-.548zm-17.332.235c.535 0 .802.274.802.822v12.247c0 .548-.267.822-.802.822h-.9c-.535 0-.802-.274-.802-.822V20.057c0-.548.267-.822.802-.822h.9zm32.825 0c.535 0 .802.274.802.822v12.247c0 .548-.267.822-.802.822h-.9c-.535 0-.802-.274-.802-.822V20.057c0-.548.267-.822.802-.822h.9zm18.134 0c.548 0 .822.274.822.822v.547c0 .535-.274.803-.822.803h-4.656v3.932h3.795c.548 0 .822.268.822.802v.548c0 .548-.274.822-.822.822h-3.795v4.793c0 .548-.268.822-.802.822h-.9c-.535 0-.803-.274-.803-.822V20.057c0-.548.268-.822.803-.822h6.358zm17.567 0c.535 0 .802.274.802.822v.547c0 .535-.267.803-.802.803h-3.737v10.897c0 .548-.274.822-.822.822h-.88c-.535 0-.802-.274-.802-.822V21.407H89.89c-.548 0-.822-.268-.822-.803v-.547c0-.548.274-.822.822-.822h9.978zm-85.134 0c1.07 0 2.041.156 2.915.47.874.312 1.617.762 2.23 1.35.613.586 1.09 1.31 1.429 2.171.339.861.508 1.84.508 2.935 0 1.096-.17 2.074-.508 2.935a6.2 6.2 0 01-1.429 2.191c-.613.6-1.356 1.056-2.23 1.37-.874.313-1.846.47-2.915.47h-3.933c-.535 0-.802-.275-.802-.823V20.057c0-.548.267-.822.802-.822h3.933zm-.137 2.172h-2.094v9.547h2.094c1.409 0 2.53-.407 3.365-1.222.835-.816 1.252-2.006 1.252-3.571 0-.77-.11-1.451-.332-2.045a4.028 4.028 0 00-.94-1.487 4.033 4.033 0 00-1.457-.91 5.435 5.435 0 00-1.888-.312z" fill="#FFF"/></g></svg>
